X:1
%%score [ ( 1 2 ) | ( 3 4 ) | ( 5 6 ) | ( 7 8 ) ] 9 [ ( 10 11 ) | ( 12 13 ) | ( 14 15 ) | ( 16 17 ) | ( 18 19 ) | ( 20 21 ) | ( 22 23 ) | ( 24 25 ) | ( 26 27 ) | ( 28 29 ) ]
L:1/8
Q:1/4=50
M:3/4
K:E
V:1 treble nm="Flauti" snm="Fl."
V:2 treble 
V:3 treble nm="Oboi" snm="Ob."
V:4 treble 
V:5 treble transpose=-2 nm="Clarinetti in B" snm="Cl."
V:6 treble transpose=-2 
V:7 bass nm="Fagotti" snm="Fag."
V:8 bass 
V:9 treble transpose=-14 nm="Corni in B" snm="Cor."
V:10 treble transpose=2 nm="Trombe in D" snm="Tr."
V:11 treble transpose=2
V:12 bass nm="Timpani in A.E." snm="Timp."
V:13 bass
V:14 treble nm="Violino I"
V:15 treble 
V:16 treble nm="Violino II"
V:17 treble 
V:18 alto nm="Viola"
V:19 alto 
V:20 bass nm="Violoncello I"
V:21 bass 
V:22 bass nm="Violoncello II"
V:23 bass 
V:24 bass nm="Violoncello III"
V:25 bass 
V:26 bass nm="Violoncello IV"
V:27 bass 
V:28 bass nm="Violoncello II"
V:29 bass 
[V:1]"^Andante molto lento." z6|[V:2]x6|[V:3]z6|[V:4]x6|[V:5][K:F#] z6|[V:6][K:F#] x6|[V:7]z6|[V:8]x6|[V:9][K:C#] z6|[V:10][K:C#] z6|[V:11][K:C#] x6|[V:12][K:C] z6|[V:13][K:C] x6|[V:14]!p! (E3 ^EF>^^F)|[V:15]x6|[V:16]z2!p! (G,2 C2)|[V:17]x6|[V:18]z2!p! (E,2 A,2)|[V:19]x6|[V:20]z2!p! (C,2 F,,2)|[V:21]x6|[V:22]z6|[V:23]x6|[V:24]z6|[V:25]x6|[V:26]z6|[V:27]x6|[V:28]z6|[V:29]x6|
[V:1]z6|[V:2]x6|[V:3]z6|[V:4]x6|[V:5]z6|[V:6]x6|[V:7]z6|[V:8]x6|[V:9]z6|[V:10]z6|[V:11]x6|[V:12]z6|[V:13]x6|[V:14](G3 ^^FG>^F)|[V:15]x6|[V:16]z2 (D2 ^B,2)|[V:17]x6|[V:18]z2 (D,2 G,2)|[V:19]x6|[V:20]z2 (^B,,2 G,,2)|[V:21]x6|[V:22]z6|[V:23]x6|[V:24]z6|[V:25]x6|[V:26]z6|[V:27]x6|[V:28]z6|[V:29]x6|
[V:1]z6|[V:2]x6|[V:3]z6|[V:4]x6|[V:5]z6|[V:6]x6|[V:7]z6|[V:8]x6|[V:9]z6|[V:10]z6|[V:11]x6|[V:12]z6|[V:13]x6|[V:14](E3 DE>^E)|[V:15]x6|[V:16]z2 (G,2 C2)|[V:17]x6|[V:18]z2 (E,2 G,2)|[V:19]x6|[V:20]z2 (C,2 E,2)|[V:21]x6|[V:22]z6|[V:23]x6|[V:24]z6|[V:25]x6|[V:26]z6|[V:27]x6|[V:28]z6|[V:29]x6|
[V:1]z6|[V:2]x6|[V:3]z6|[V:4]x6|[V:5]z6|[V:6]x6|[V:7]z6|[V:8]x6|[V:9]z6|[V:10]z6|[V:11]x6|[V:12]z6|[V:13]x6|[V:14](F3 ^EF>=E)|[V:15]x6|[V:16]z2 (C2 ^A,2)|[V:17]x6|[V:18]z2 (C,2 F,2)|[V:19]x6|[V:20]z2 (^A,,2 F,,2)|[V:21]x6|[V:22]z6|[V:23]x6|[V:24]z6|[V:25]x6|[V:26]z6|[V:27]x6|[V:28]z6|[V:29]x6|
[V:1]z6|[V:2]x6|[V:3]z6|[V:4]x6|[V:5]z6|[V:6]x6|[V:7]z6|[V:8]x6|[V:9]z6|[V:10]z6|[V:11]x6|[V:12]z6|[V:13]x6|[V:14](D3 CD>E)|[V:15]x6|[V:16]z2 (F,2 B,2)|[V:17]x6|[V:18]z2 (D,2 F,2)|[V:19]x6|[V:20]z2 (B,,2 D,2)|[V:21]x6|[V:22]z6|[V:23]x6|[V:24]z6|[V:25]x6|[V:26]z6|[V:27]x6|[V:28]z6|[V:29]x6|
[V:1]z6|[V:2]x6|[V:3]z6|[V:4]x6|[V:5]z6|[V:6]x6|[V:7]z6|[V:8]x6|[V:9]z6|[V:10]z6|[V:11]x6|[V:12]z6|[V:13]x6|[V:14](E3 DE>=D)|[V:15]x6|[V:16]z2 (B,2 G,2)|[V:17]x6|[V:18]z2 (B,,2 E,2)|[V:19]x6|[V:20]z2 (G,,2 E,,2)|[V:21]x6|[V:22]z6|[V:23]x6|[V:24]z6|[V:25]x6|[V:26]z6|[V:27]x6|[V:28]z6|[V:29]x6|
[V:1]z6|[V:2]x6|[V:3]z6|[V:4]x6|[V:5]z6|[V:6]x6|[V:7]z6|[V:8]x6|[V:9]z6|[V:10]z6|[V:11]x6|[V:12]z6|[V:13]x6|[V:14]!<(! (C3 EGB)|[V:15]x6|[V:16]z2!<(! (A,2 B,2)|[V:17]x6|[V:18]z2!<(! (E,2 E,2)|[V:19]x6|[V:20]z2!<(! (A,,2 G,,2)|[V:21]x6|[V:22]z6|[V:23]x6|[V:24]z6|[V:25]x6|[V:26]z6|[V:27]x6|[V:28]z6|[V:29]x6|
[V:1]z6|[V:2]x6|[V:3]z6|[V:4]x6|[V:5]z6|[V:6]x6|[V:7]z6|[V:8]x6|[V:9]z6|[V:10]z6|[V:11]x6|[V:12]z6|[V:13]x6|[V:14](^A!<)!!>(!cecAE)!>)!|[V:15]x6|[V:16](C2!<)!!>(! ^A,2 C2)!>)!|[V:17]x6|[V:18](E,2!<)!!>(! C,2 E,2)!>)!|[V:19]x6|[V:20](=G,,4!<)!!>(! F,,2)!>)!|[V:21]x6|[V:22]z6|[V:23]x6|[V:24]z6|[V:25]x6|[V:26]z6|[V:27]x6|[V:28]z6|[V:29]x6|
[V:1]z6|[V:2]x6|[V:3]z6|[V:4]x6|[V:5]z6|[V:6]x6|[V:7]z6|[V:8]x6|[V:9]z6|[V:10]z6|[V:11]x6|[V:12]z6|[V:13]x6|[V:14](D3 EF>^^F)|[V:15]x6|[V:16]z2 (B,2 C2)|[V:17]x6|[V:18]z2 (E,2 A,2)|[V:19]x6|[V:20]z2 (G,,2 A,,2)|[V:21]x6|[V:22]z6|[V:23]x6|[V:24]z6|[V:25]x6|[V:26]z6|[V:27]x6|[V:28]z6|[V:29]x6|
[V:1]z6|[V:2]x6|[V:3]z6|[V:4]x6|[V:5]z6|[V:6]x6|[V:7]z6|[V:8]x6|[V:9]z6|[V:10]z6|[V:11]x6|[V:12]z6|[V:13]x6|[V:14](G3 ^^FG>^F)|[V:15]x6|[V:16]z2 (D2 ^B,2)|[V:17]x6|[V:18]z2 (D,2 G,2)|[V:19]x6|[V:20]z2 (^B,,2 G,,2)|[V:21]x6|[V:22]z6|[V:23]x6|[V:24]z6|[V:25]x6|[V:26]z6|[V:27]x6|[V:28]z6|[V:29]x6|
[V:1]z6|[V:2]x6|[V:3]z6|[V:4]x6|[V:5]z6|[V:6]x6|[V:7]z6|[V:8]x6|[V:9]z6|[V:10]z6|[V:11]x6|[V:12]z6|[V:13]x6|[V:14](E3 DE>^E)|[V:15]x6|[V:16]z2 (C2 G,2)|[V:17]x6|[V:18]z2 (G,2 E,2)|[V:19]x6|[V:20]z2 (C,2 C,,2)|[V:21]x6|[V:22]z6|[V:23]x6|[V:24]z6|[V:25]x6|[V:26]z6|[V:27]x6|[V:28]z6|[V:29]x6|
[V:1]z6|[V:2]x6|[V:3]z6|[V:4]x6|[V:5]z6|[V:6]x6|[V:7]z6|[V:8]x6|[V:9]z6|[V:10]z6|[V:11]x6|[V:12]z6|[V:13]x6|[V:14](F3 ^EF>=E)|[V:15]x6|[V:16]z2 (C2 ^A,2)|[V:17]x6|[V:18]z2 (C,2 F,2)|[V:19]x6|[V:20]z2 (^A,,2 F,,2)|[V:21]x6|[V:22]z6|[V:23]x6|[V:24]z6|[V:25]x6|[V:26]z6|[V:27]x6|[V:28]z6|[V:29]x6|
[V:1]z6|[V:2]x6|[V:3]z6|[V:4]x6|[V:5]z6|[V:6]x6|[V:7]z6|[V:8]x6|[V:9]z6|[V:10]z6|[V:11]x6|[V:12]z6|[V:13]x6|[V:14](D3 CD>E)|[V:15]x6|[V:16]z2 (B,2 F,2)|[V:17]x6|[V:18]z2 (F,2 D,2)|[V:19]x6|[V:20]z2 (B,,2 B,,,2)|[V:21]x6|[V:22]z6|[V:23]x6|[V:24]z6|[V:25]x6|[V:26]z6|[V:27]x6|[V:28]z6|[V:29]x6|
[V:1]z6|[V:2]x6|[V:3]z6|[V:4]x6|[V:5]z6|[V:6]x6|[V:7]z6|[V:8]x6|[V:9]z6|[V:10]z6|[V:11]x6|[V:12]z6|[V:13]x6|[V:14](E3 DE>D)|[V:15]x6|[V:16]z2 (=G,2 =C2)|[V:17]x6|[V:18]z2 (E,2 =G,2)|[V:19]x6|[V:20]z2 (=C,2 =C,,2)|[V:21]x6|[V:22]z6|[V:23]x6|[V:24]z6|[V:25]x6|[V:26]z6|[V:27]x6|[V:28]z6|[V:29]x6|
[V:1]z6|[V:2]x6|[V:3]z6|[V:4]x6|[V:5]z6|[V:6]x6|[V:7]z6|[V:8]x6|[V:9]z6|[V:10]z6|[V:11]x6|[V:12]z6|[V:13]x6|[V:14]!<(! (E3 F=G>A)|[V:15]x6|[V:16]z2!<(! (=C2 E2)|[V:17]x6|[V:18]z2!<(! (=G,2 =C2)|[V:19]x6|[V:20]z2!<(! (=C,2 A,,2)|[V:21]x6|[V:22]z6|[V:23]x6|[V:24]z6|[V:25]x6|[V:26]z6|[V:27]x6|[V:28]z6|[V:29]x6|
[V:1]z6|[V:2]x6|[V:3]z6|[V:4]x6|[V:5]z6|[V:6]x6|[V:7]z6|[V:8]x6|[V:9]z6|[V:10]z6|[V:11]x6|[V:12]z6|[V:13]x6|[V:14](^A3 ^^GA>G)!<)!|[V:15]x6|[V:16]z2 (^A,2 ^E2)!<)!|[V:17]x6|[V:18]z2 (^E,2 ^A,2)!<)!|[V:19]x6|[V:20]z2 (^^C,,2 ^^C,2)!<)!|[V:21]x6|[V:22]z6|[V:23]x6|[V:24]z6|[V:25]x6|[V:26]z6|[V:27]x6|[V:28]z6|[V:29]x6|
[V:1][K:Eb] z6|[V:2][K:Eb] x6|[V:3][K:Eb] z6|[V:4][K:Eb] x6|[V:5][K:F] z6|[V:6][K:F] x6|[V:7][K:Eb] z6|[V:8][K:Eb] x6|[V:9][K:F] z6|[V:10][K:C] z6|[V:11][K:C] x6|[V:12][K:C] z6|[V:13][K:C] x6|[V:14][K:Eb]!f! (B3 =AB>c)|[V:15][K:Eb] x6|[V:16][K:Eb] z2!f! (F2 G2)|[V:17][K:Eb] x6|[V:18][K:Eb] z6|[V:19][K:Eb] x6|[V:20][K:Eb] z6|[V:21][K:Eb] x6|[V:22][K:Eb] z6|[V:23][K:Eb] x6|[V:24][K:Eb] z6|[V:25][K:Eb] x6|[V:26][K:Eb] z6|[V:27][K:Eb] x6|[V:28][K:Eb] z6|[V:29][K:Eb] x6|
[V:1]z6|[V:2]x6|[V:3]z6|[V:4]x6|[V:5]z6|[V:6]x6|[V:7]z6|[V:8]x6|[V:9]z6|[V:10]z6|[V:11]x6|[V:12]z6|[V:13]x6|[V:14](d3 ^cd>=c)|[V:15]x6|[V:16]z2 (=A2 ^F2)|[V:17]x6|[V:18]z2 (=A,2 D2)|[V:19]x6|[V:20]z2 (^F,2 D,2)|[V:21]x6|[V:22]z6|[V:23]x6|[V:24]z6|[V:25]x6|[V:26]z6|[V:27]x6|[V:28]z6|[V:29]x6|
[V:1]z6|[V:2]x6|[V:3]z6|[V:4]x6|[V:5]z6|[V:6]x6|[V:7]z6|[V:8]x6|[V:9]z6|[V:10]z6|[V:11]x6|[V:12]z6|[V:13]x6|[V:14](B3 =AB>=B)|[V:15]x6|[V:16]z2 (G2 D2)|[V:17]x6|[V:18]z2 (D2 B,2)|[V:19]x6|[V:20]z2 (G,2 G,,2)|[V:21]x6|[V:22]z6|[V:23]x6|[V:24]z6|[V:25]x6|[V:26]z6|[V:27]x6|[V:28]z6|[V:29]x6|
[V:1]z6|[V:2]x6|[V:3]z6|[V:4]x6|[V:5]z6|[V:6]x6|[V:7]z6|[V:8]x6|[V:9]z6|[V:10]z6|[V:11]x6|[V:12]z6|[V:13]x6|[V:14](c3 =Bc>_B)|[V:15]x6|[V:16]z2 (G2 =E2)|[V:17]x6|[V:18]z2 (G,2 C2)|[V:19]x6|[V:20]z2 (=E,2 C,2)|[V:21]x6|[V:22]z6|[V:23]x6|[V:24]z6|[V:25]x6|[V:26]z6|[V:27]x6|[V:28]z6|[V:29]x6|
[V:1]z6|[V:2]x6|[V:3]z6|[V:4]x6|[V:5]z6|[V:6]x6|[V:7]z6|[V:8]x6|[V:9]z6|[V:10]z6|[V:11]x6|[V:12]z6|[V:13]x6|[V:14](=A3 GA>B)|[V:15]x6|[V:16]z2 (F2 C2)|[V:17]x6|[V:18]z2 (C2 =A,2)|[V:19]x6|[V:20]z2 (F,2 F,,2)|[V:21]x6|[V:22]z6|[V:23]x6|[V:24]z6|[V:25]x6|[V:26]z6|[V:27]x6|[V:28]z6|[V:29]x6|
[V:1]z6|[V:2]x6|[V:3]z6|[V:4]x6|[V:5]z6|[V:6]x6|[V:7]z6|[V:8]x6|[V:9]z6|[V:10]z6|[V:11]x6|[V:12]z6|[V:13]x6|[V:14](B3 =AB>_A)|[V:15]x6|[V:16]z2 (F2 D2)|[V:17]x6|[V:18]z2 (F,2 B,2)|[V:19]x6|[V:20]z2 (D,2 B,,2)|[V:21]x6|[V:22]z6|[V:23]x6|[V:24]z6|[V:25]x6|[V:26]z6|[V:27]x6|[V:28]z6|[V:29]x6|
[V:1]z6|[V:2]x6|[V:3]z6|[V:4]x6|[V:5]z6|[V:6]x6|[V:7]z6|[V:8]x6|[V:9]z6|[V:10]z6|[V:11]x6|[V:12]z6|[V:13]x6|[V:14]!<(! (G3 Bdf)|[V:15]x6|[V:16]z2!<(! (E2 F2)|[V:17]x6|[V:18]z2!<(! (B,2 B,2)|[V:19]x6|[V:20]z2!<(! (E,2 D,2)|[V:21]x6|[V:22]z6|[V:23]x6|[V:24]z6|[V:25]x6|[V:26]z6|[V:27]x6|[V:28]z6|[V:29]x6|
[V:1]z6|[V:2]x6|[V:3]z6|[V:4]x6|[V:5]z6|[V:6]x6|[V:7]z6|[V:8]x6|[V:9]z6|[V:10]z6|[V:11]x6|[V:12]z6|[V:13]x6|[V:14](=e!<)!!>(!gbgeB)!>)!|[V:15]x6|[V:16](G2!<)!!>(! =E2 G2)!>)!|[V:17]x6|[V:18](B,2!<)!!>(! G,2 B,2)!>)!|[V:19]x6|[V:20](_D,4!<)!!>(! C,2)!>)!|[V:21]x6|[V:22]z6|[V:23]x6|[V:24]z6|[V:25]x6|[V:26]z6|[V:27]x6|[V:28]z6|[V:29]x6|
[V:1]z6|[V:2]x6|[V:3]z6|[V:4]x6|[V:5]z6|[V:6]x6|[V:7]z6|[V:8]x6|[V:9]z6|[V:10]z6|[V:11]x6|[V:12]z6|[V:13]x6|[V:14](=A3 Bc>^c)|[V:15]x6|[V:16]z2 (F2 G2)|[V:17]x6|[V:18]z2 (B,2 E2)|[V:19]x6|[V:20]z2 (D,2 E,2)|[V:21]x6|[V:22]z6|[V:23]x6|[V:24]z6|[V:25]x6|[V:26]z6|[V:27]x6|[V:28]z6|[V:29]x6|
[V:1]z6|[V:2]x6|[V:3]z6|[V:4]x6|[V:5]z6|[V:6]x6|[V:7]z6|[V:8]x6|[V:9]z6|[V:10]z6|[V:11]x6|[V:12]z6|[V:13]x6|[V:14](d3 ^cd>=c)|[V:15]x6|[V:16]z2 (=A2 ^F2)|[V:17]x6|[V:18]z2 (=A,2 D2)|[V:19]x6|[V:20]z2 (^F,2 D,2)|[V:21]x6|[V:22]z6|[V:23]x6|[V:24]z6|[V:25]x6|[V:26]z6|[V:27]x6|[V:28]z6|[V:29]x6|
[V:1]z6|[V:2]x6|[V:3]z6|[V:4]x6|[V:5]z6|[V:6]x6|[V:7]z6|[V:8]x6|[V:9]z6|[V:10]z6|[V:11]x6|[V:12]z6|[V:13]x6|[V:14](B3 =AB>=B)|[V:15]x6|[V:16]z2 (G2 D2)|[V:17]x6|[V:18]z2 (D2 B,2)|[V:19]x6|[V:20]z2 (G,2 G,,2)|[V:21]x6|[V:22]z6|[V:23]x6|[V:24]z6|[V:25]x6|[V:26]z6|[V:27]x6|[V:28]z6|[V:29]x6|
[V:1]z6|[V:2]x6|[V:3]z6|[V:4]x6|[V:5]z6|[V:6]x6|[V:7]z6|[V:8]x6|[V:9]z6|[V:10]z6|[V:11]x6|[V:12]z6|[V:13]x6|[V:14](c3 =Bc>_B)|[V:15]x6|[V:16]z2 (G2 =E2)|[V:17]x6|[V:18]z2 (G,2 C2)|[V:19]x6|[V:20]z2 (=E,2 C,2)|[V:21]x6|[V:22]z6|[V:23]x6|[V:24]z6|[V:25]x6|[V:26]z6|[V:27]x6|[V:28]z6|[V:29]x6|
[V:1]z6|[V:2]x6|[V:3]z6|[V:4]x6|[V:5]z6|[V:6]x6|[V:7]z6|[V:8]x6|[V:9]z6|[V:10]z6|[V:11]x6|[V:12]z6|[V:13]x6|[V:14](=A3 GA>B)|[V:15]x6|[V:16]z2 (F2 C2)|[V:17]x6|[V:18]z2 (C2 =A,2)|[V:19]x6|[V:20]z2 (F,2 F,,2)|[V:21]x6|[V:22]z6|[V:23]x6|[V:24]z6|[V:25]x6|[V:26]z6|[V:27]x6|[V:28]z6|[V:29]x6|
[V:1]z6|[V:2]x6|[V:3]z6|[V:4]x6|[V:5]z6|[V:6]x6|[V:7]z6|[V:8]x6|[V:9]z6|[V:10]z6|[V:11]x6|[V:12]z6|[V:13]x6|[V:14](B3 =AB>A)|[V:15]x6|[V:16]z2 (_D2 F2)|[V:17]x6|[V:18]z2 (B,2 _D2)|[V:19]x6|[V:20]z2 (_G,2 _G,,2)|[V:21]x6|[V:22]z6|[V:23]x6|[V:24]z6|[V:25]x6|[V:26]z6|[V:27]x6|[V:28]z6|[V:29]x6|
[V:1]z6|[V:2]x6|[V:3]z6|[V:4]x6|[V:5]z6|[V:6]x6|[V:7]z6|[V:8]x6|[V:9]z6|[V:10]z6|[V:11]x6|[V:12]z6|[V:13]x6|[V:14]!<(! (B3 c_d>e)|[V:15]x6|[V:16]z2!<(! (_D2 F2)|[V:17]x6|[V:18]z2!<(! (_G,2 B,2)|[V:19]x6|[V:20]z2!<(! (_G,2 E,2)|[V:21]x6|[V:22]z6|[V:23]x6|[V:24]z6|[V:25]x6|[V:26]z6|[V:27]x6|[V:28]z6|[V:29]x6|
[V:1]z6|[V:2]x6|[V:3]z6|[V:4]x6|[V:5]z6|[V:6]x6|[V:7]z6|[V:8]x6|[V:9]z6|[V:10]z6|[V:11]x6|[V:12]z6|[V:13]x6|[V:14](=e3 ^de>d)!<)!|[V:15]x6|[V:16]z2 (=E2 =B2)!<)!|[V:17]x6|[V:18]z2 (=B,2 =E2)!<)!|[V:19]x6|[V:20]z2 (^G,,2 ^G,2)!<)!|[V:21]x6|[V:22]z6|[V:23]x6|[V:24]z6|[V:25]x6|[V:26]z6|[V:27]x6|[V:28]z6|[V:29]x6|
[V:1][K:C] z6|[V:2][K:C] x6|[V:3][K:C] z6|[V:4][K:C] x6|[V:5][K:D] z6|[V:6][K:D] x6|[V:7][K:C] z6|[V:8][K:C] x6|[V:9][K:D] z6|[V:10][K:C] z6|[V:11][K:C] x6|[V:12][K:C] z6|[V:13][K:C] x6|[V:14][K:C]!f! (e3 ^de>^f)|[V:15][K:C] x6|[V:16][K:C] z2!f! (c2 d2)|[V:17][K:C] x6|[V:18][K:C] z2!f! (F2 _B2)|[V:19][K:C] x6|[V:20][K:C] z2!f! (A,2 _B,2)|[V:21][K:C] x6|[V:22][K:C] z6|[V:23][K:C] x6|[V:24][K:C] z6|[V:25][K:C] x6|[V:26][K:C] z6|[V:27][K:C] x6|[V:28][K:C] z6|[V:29]x6|
[V:1]z6|[V:2]x6|[V:3]z6|[V:4]x6|[V:5]z6|[V:6]x6|[V:7]z6|[V:8]x6|[V:9]z6|[V:10]z6|[V:11]x6|[V:12]z6|[V:13]x6|[V:14](a3 ^ga>=g)|[V:15]x6|[V:16]z2 (e2 ^c2)|[V:17]x6|[V:18]z2 (E2 A2)|[V:19]x6|[V:20]z2 (^C2 A,2)|[V:21]x6|[V:22]z6|[V:23]x6|[V:24]z6|[V:25]x6|[V:26]z6|[V:27]x6|[V:28]z6|[V:29]x6|
[V:1]z6|[V:2]x6|[V:3]z6|[V:4]x6|[V:5]z6|[V:6]x6|[V:7]z6|[V:8]x6|[V:9]z6|[V:10]z6|[V:11]x6|[V:12]z6|[V:13]x6|[V:14](^f3 ^ef>g)|[V:15]x6|[V:16]z2 (d2 A2)|[V:17]x6|[V:18]z2 (A2 F2)|[V:19]x6|[V:20]z2 (D2 D,2)|[V:21]x6|[V:22]z6|[V:23]x6|[V:24]z6|[V:25]x6|[V:26]z6|[V:27]x6|[V:28]z6|[V:29]x6|
[V:1]z6|[V:2]x6|[V:3]z6|[V:4]x6|[V:5]z6|[V:6]x6|[V:7]z6|[V:8]x6|[V:9]z6|[V:10]z6|[V:11]x6|[V:12]z6|[V:13]x6|[V:14](a3 ^ga>=g)|[V:15]x6|[V:16]z2 (d2 B2)|[V:17]x6|[V:18]z2 (D2 G2)|[V:19]x6|[V:20]z2 (B,2 G,2)|[V:21]x6|[V:22]z6|[V:23]x6|[V:24]z6|[V:25]x6|[V:26]z6|[V:27]x6|[V:28]z6|[V:29]x6|
[V:1]z6|[V:2]x6|[V:3]z6|[V:4]x6|[V:5]z6|[V:6]x6|[V:7]z6|[V:8]x6|[V:9]z6|[V:10]z6|[V:11]x6|[V:12]z6|[V:13]x6|[V:14](^f3 ef>g)|[V:15]x6|[V:16]z2 (c2 G2)|[V:17]x6|[V:18]z2 (G2 E2)|[V:19]x6|[V:20]z2 (C2 C,2)|[V:21]x6|[V:22]z6|[V:23]x6|[V:24]z6|[V:25]x6|[V:26]z6|[V:27]x6|[V:28]z6|[V:29]x6|
[V:1]z6|[V:2]x6|[V:3]z6|[V:4]x6|[V:5]z6|[V:6]x6|[V:7]z6|[V:8]x6|[V:9]z6|[V:10]z6|[V:11]x6|[V:12]z6|[V:13]x6|[V:14](g3 ^fg>=f)|[V:15]x6|[V:16]z2 (c2 A2)|[V:17]x6|[V:18]z2 (C2 F2)|[V:19]x6|[V:20]z2 (A,2 F,2)|[V:21]x6|[V:22]z6|[V:23]x6|[V:24]z6|[V:25]x6|[V:26]z6|[V:27]x6|[V:28]z6|[V:29]x6|
[V:1]z6|[V:2]x6|[V:3]z6|[V:4]x6|[V:5]z6|[V:6]x6|[V:7]z6|[V:8]x6|[V:9]z6|[V:10]z6|[V:11]x6|[V:12]z6|[V:13]x6|[V:14]!<(! (e3 gbd')|[V:15]x6|[V:16]z2!<(! (c2 d2)|[V:17]x6|[V:18]z2!<(! (G2 G2)|[V:19]x6|[V:20]z2!<(! (C2 B,2)|[V:21]x6|[V:22]z6|[V:23]x6|[V:24]z6|[V:25]x6|[V:26]z6|[V:27]x6|[V:28]z6|[V:29]x6|
[V:1]z6|[V:2]x6|[V:3]z6|[V:4]x6|[V:5]z6|[V:6]x6|[V:7]z6|[V:8]x6|[V:9]z6|[V:10]z6|[V:11]x6|[V:12]z6|[V:13]x6|[V:14](^c'!<)!!>(!e'g'e'c'g)!>)!|[V:15]x6|[V:16](e2!<)!!>(! ^c2 e2)!>)!|[V:17]x6|[V:18](G2!<)!!>(! E2 G2)!>)!|[V:19]x6|[V:20](_B,4!<)!!>(! A,2)!>)!|[V:21]x6|[V:22]z6|[V:23]x6|[V:24]z6|[V:25]x6|[V:26]z6|[V:27]x6|[V:28]z6|[V:29]x6|
[V:1]z6|[V:2]x6|[V:3]z6|[V:4]x6|[V:5]z6|[V:6]x6|[V:7]z6|[V:8]x6|[V:9]z6|[V:10]z6|[V:11]x6|[V:12]z6|[V:13]x6|[V:14](^f3 ^ga>^a)|[V:15]x6|[V:16]z2 (d2 e2)|[V:17]x6|[V:18]z2 (G2 c2)|[V:19]x6|[V:20]z2 (B,2 C2)|[V:21]x6|[V:22]z6|[V:23]x6|[V:24]z6|[V:25]x6|[V:26]z6|[V:27]x6|[V:28]z6|[V:29]x6|
[V:1]z6|[V:2]x6|[V:3]z6|[V:4]x6|[V:5]z6|[V:6]x6|[V:7]z6|[V:8]x6|[V:9]z6|[V:10]z6|[V:11]x6|[V:12]z6|[V:13]x6|[V:14](b3 ^ab>=a)|[V:15]x6|[V:16]z2 (^f2 ^d2)|[V:17]x6|[V:18]z2 (^F2 B2)|[V:19]x6|[V:20]z2 (^D2 B,2)|[V:21]x6|[V:22]z6|[V:23]x6|[V:24]z6|[V:25]x6|[V:26]z6|[V:27]x6|[V:28]z6|[V:29]x6|
[V:1]z6|[V:2]x6|[V:3]z6|[V:4]x6|[V:5]z6|[V:6]x6|[V:7]z6|[V:8]x6|[V:9]z6|[V:10]z6|[V:11]x6|[V:12]z6|[V:13]x6|[V:14](^g3 ^^fg>^a)|[V:15]x6|[V:16]z2 (e2 B2)|[V:17]x6|[V:18]z2 (B2 ^G2)|[V:19]x6|[V:20]z2 (E2 E,2)|[V:21]x6|[V:22]z6|[V:23]x6|[V:24]z6|[V:25]x6|[V:26]z6|[V:27]x6|[V:28]z6|[V:29]x6|
[V:1]z6|[V:2]x6|[V:3]z6|[V:4]x6|[V:5]z6|[V:6]x6|[V:7]z6|[V:8]x6|[V:9]z6|[V:10]z6|[V:11]x6|[V:12]z6|[V:13]x6|[V:14](b3 ^ab>=a)|[V:15]x6|[V:16]z2 (e2 ^c2)|[V:17]x6|[V:18]z2 (E2 A2)|[V:19]x6|[V:20]z2 (^C2 A,2)|[V:21]x6|[V:22]z6|[V:23]x6|[V:24]z6|[V:25]x6|[V:26]z6|[V:27]x6|[V:28]z6|[V:29]x6|
[V:1]z6|[V:2]x6|[V:3]z6|[V:4]x6|[V:5]z6|[V:6]x6|[V:7]z6|[V:8]x6|[V:9]z6|[V:10]z6|[V:11]x6|[V:12]z6|[V:13]x6|[V:14](^g3 ^^fg>^a)|[V:15]x6|[V:16]z2 (e2 B2)|[V:17]x6|[V:18]z2 (B2 ^G2)|[V:19]x6|[V:20]z2 (E2 E,2)|[V:21]x6|[V:22]z6|[V:23]x6|[V:24]z6|[V:25]x6|[V:26]z6|[V:27]x6|[V:28]z6|[V:29]x6|
[V:1]z6|[V:2]x6|[V:3]z6|[V:4]x6|[V:5]z6|[V:6]x6|[V:7]z6|[V:8]x6|[V:9]z6|[V:10]z6|[V:11]x6|[V:12]z6|[V:13]x6|[V:14](b3 ^ab>=a)|[V:15]x6|[V:16]z2 (e2 ^c2)|[V:17]x6|[V:18]z2 (E2 A2)|[V:19]x6|[V:20]z2 (^C2 A,2)|[V:21]x6|[V:22]z6|[V:23]x6|[V:24]z6|[V:25]x6|[V:26]z6|[V:27]x6|[V:28]z6|[V:29]x6|
[V:1]z6|[V:2]x6|[V:3]z6|[V:4]x6|[V:5]z6|[V:6]x6|[V:7]z6|[V:8]x6|[V:9]z6|[V:10]z6|[V:11]x6|[V:12]z6|[V:13]x6|[V:14]!<(! (^g3 bd'>e')|[V:15]x6|[V:16]z2!<(! (e2 ^g2)|[V:17]x6|[V:18]z2!<(! (B2 e2)|[V:19]x6|[V:20]z2!<(! (E2 E,2)|[V:21]x6|[V:22]z6|[V:23]x6|[V:24]z6|[V:25]x6|[V:26]z6|[V:27]x6|[V:28]z6|[V:29]x6|
[V:1]z6|[V:2]x6|[V:3]z6|[V:4]x6|[V:5]z6|[V:6]x6|[V:7]z6|[V:8]x6|[V:9]z6|[V:10]z6|[V:11]x6|[V:12]z6|[V:13]x6|[V:14](^e'3 d'^f'>e')!<)!|[V:15]x6|[V:16]z2 (^g2 b2)!<)!|[V:17]x6|[V:18]z2 (d2 ^g2)!<)!|[V:19]x6|[V:20]z2 (B,2 B,,2)!<)!|[V:21]x6|[V:22]z6|[V:23]x6|[V:24]z6|[V:25]x6|[V:26]z6|[V:27]x6|[V:28]z6|[V:29]x6|
[V:1][K:A]!ff! [c'e']6-|[V:2][K:A] x6|[V:3][K:A]!ff! [ce]6-|[V:4][K:A] x6|[V:5][K:B]!ff! [df]6-|[V:6][K:B] x6|[V:7][K:A]!ff! [A,,A,]6-|[V:8][K:A] x6|[V:9][K:B]!ff! [df]6-|[V:10][K:G]!ff! [G,G]6-|[V:11][K:G] x6|[V:12][K:G]!ff! !trill(!!///!TG,,6-|[V:13][K:G] x6|[V:14][K:A]!ff! (e'3 ^d'e'>f')|[V:15][K:A] x6|[V:16][K:A]!ff! (e3 ^de>f)|[V:17][K:A] x6|[V:18][K:A]!ff! (E3 ^DE>F)|[V:19][K:A] x6|[V:20][K:A]!ff! (E,3 ^D,E,>F,)|[V:21][K:A] x6|[V:22][K:A]!ff! (E,3 ^D,E,>F,)|[V:23][K:A] x6|[V:24][K:A]!ff! (E,3 ^D,E,>F,)|[V:25][K:A] x6|[V:26][K:A]!ff! (E,3 ^D,E,>F,)|[V:27][K:A] x6|[V:28][K:A]!ff! (E,3 ^D,E,>F,)|[V:29]x6|
[V:1][c'e']6|[V:2]x6|[V:3][ce]6|[V:4]x6|[V:5][df]6|[V:6]x6|[V:7][A,,A,]6|[V:8]x6|[V:9][df]6|[V:10][G,G]6|[V:11]x6|[V:12]!trill)!G,,6|[V:13]x6|[V:14](a'3 g'a'>=g')|[V:15]x6|[V:16](a3 ga>=g)|[V:17]x6|[V:18](A3 GA>=G)|[V:19]x6|[V:20](A,3 G,A,>=G,)|[V:21]x6|[V:22](A,3 G,A,>=G,)|[V:23]x6|[V:24](A,3 G,A,>=G,)|[V:25]x6|[V:26](A,3 G,A,>=G,)|[V:27]x6|[V:28](A,3 G,A,>=G,)|[V:29]x6|
[V:1][d'f']6-|[V:2]x6|[V:3][df]6-|[V:4]x6|[V:5][eg]6-|[V:6]x6|[V:7][D,,D,]6-|[V:8]x6|[V:9][eg]6-|[V:10][Cc]6-|[V:11]x6|[V:12]!trill(!TD,6-|[V:13]x6|[V:14](f'3 ^e'f'>g')|[V:15]x6|[V:16](f3 ^ef>g)|[V:17]x6|[V:18](F3 ^EF>G)|[V:19]x6|[V:20](F,3 ^E,F,>G,)|[V:21]x6|[V:22](F,3 ^E,F,>G,)|[V:23]x6|[V:24](F,3 ^E,F,>G,)|[V:25]x6|[V:26](F,3 ^E,F,>G,)|[V:27]x6|[V:28](F,3 ^E,F,>G,)|[V:29]x6|
[V:1][d'f']6|[V:2]x6|[V:3][df]6|[V:4]x6|[V:5][eg]6|[V:6]x6|[V:7][D,,D,]6|[V:8]x6|[V:9][eg]6|[V:10][Cc]6|[V:11]x6|[V:12]!trill)!D,6|[V:13]x6|[V:14](a'3 g'a'>=g')|[V:15]x6|[V:16](a3 ga>=g)|[V:17]x6|[V:18](A3 GA>=G)|[V:19]x6|[V:20](A,3 G,A,>=G,)|[V:21]x6|[V:22](A,3 G,A,>=G,)|[V:23]x6|[V:24](A,3 G,A,>=G,)|[V:25]x6|[V:26](A,3 G,A,>=G,)|[V:27]x6|[V:28](A,3 G,A,>=G,)|[V:29]x6|
[V:1][e'=g']6|[V:2]x6|[V:3][e=g]6|[V:4]x6|[V:5][f=a]6|[V:6]x6|[V:7][C,,C,]6|[V:8]x6|[V:9][f=a]6|[V:10][G,G]6|[V:11]x6|[V:12]!trill(!TG,,6|[V:13]x6|[V:14](f'3 ^e'f'>=g')|[V:15]x6|[V:16](f3 ^ef>=g)|[V:17]x6|[V:18](F3 ^EF>=G)|[V:19]x6|[V:20](F,3 ^E,F,>=G,)|[V:21]x6|[V:22](F,3 ^E,F,>=G,)|[V:23]x6|[V:24](F,3 ^E,F,>=G,)|[V:25]x6|[V:26](F,3 ^E,F,>=G,)|[V:27]x6|[V:28](F,3 ^E,F,>=G,)|[V:29]x6|
[V:1][e'=g']6|[V:2]x6|[V:3][e=g]6|[V:4]x6|[V:5][f=a]6|[V:6]x6|[V:7][=C,,=C,]6|[V:8]x6|[V:9][f=a]6|[V:10][G,G]6|[V:11]x6|[V:12]!trill(!TG,,6|[V:13]x6|[V:14](a'3 g'a'>=g')|[V:15]x6|[V:16](a3 ga>=g)|[V:17]x6|[V:18](A3 GA>=G)|[V:19]x6|[V:20](A,3 G,A,>=G,)|[V:21]x6|[V:22](A,3 G,A,>=G,)|[V:23]x6|[V:24](A,3 G,A,>=G,)|[V:25]x6|[V:26](A,3 G,A,>=G,)|[V:27]x6|[V:28](A,3 G,A,>=G,)|[V:29]x6|
[V:1][e'g']6-|[V:2]x6|[V:3][eg]6-|[V:4]x6|[V:5][fa]6-|[V:6]x6|[V:7][B,,,B,,]6|[V:8]x6|[V:9][fa]6-|[V:10][Dd]6-|[V:11]x6|[V:12]!trill(!TE,,6-|[V:13]x6|[V:14](f'3 ^e'f'>g')|[V:15]x6|[V:16](f3 ^ef>g)|[V:17]x6|[V:18](F3 ^EF>G)|[V:19]x6|[V:20](F,3 ^E,F,>G,)|[V:21]x6|[V:22](F,3 ^E,F,>G,)|[V:23]x6|[V:24](F,3 ^E,F,>G,)|[V:25]x6|[V:26](F,3 ^E,F,>G,)|[V:27]x6|[V:28](F,3 ^E,F,>G,)|[V:29]x6|
[V:1][e'g']6|[V:2]x6|[V:3][eg]6|[V:4]x6|[V:5][fa]6|[V:6]x6|[V:7][_B,,,_B,,]6|[V:8]x6|[V:9][fa]6|[V:10][Dd]6|[V:11]x6|[V:12]!trill)!E,,6|[V:13]x6|[V:14](a'3 g'a'>=g')|[V:15]x6|[V:16](a3 ga>=g)|[V:17]x6|[V:18](A3 GA>=G)|[V:19]x6|[V:20](A,3 G,A,>=G,)|[V:21]x6|[V:22](A,3 G,A,>=G,)|[V:23]x6|[V:24](A,3 G,A,>=G,)|[V:25]x6|[V:26](A,3 G,A,>=G,)|[V:27]x6|[V:28](A,3 G,A,>=G,)|[V:29]x6|
[V:1][e'=g']6-|[V:2]x6|[V:3][e=g]6-|[V:4]x6|[V:5][f=a]6-|[V:6]x6|[V:7][A,,,A,,]6-|[V:8]x6|[V:9][f=a]6-|[V:10][G,G]6-|[V:11]x6|[V:12]!trill(!TA,,6-|[V:13]x6|[V:14](f'3 ^e'f'>=g')|[V:15]x6|[V:16](f3 ^ef>=g)|[V:17]x6|[V:18](F3 ^EF>=G)|[V:19]x6|[V:20](F,3 ^E,F,>=G,)|[V:21]x6|[V:22](F,3 ^E,F,>=G,)|[V:23]x6|[V:24](F,3 ^E,F,>=G,)|[V:25]x6|[V:26](F,3 ^E,F,>=G,)|[V:27]x6|[V:28](F,3 ^E,F,>=G,)|[V:29]x6|
[V:1][e'g']6-|[V:2]x6|[V:3][eg]6-|[V:4]x6|[V:5][fa]6-|[V:6]x6|[V:7][A,,,A,,]6-|[V:8]x6|[V:9][fa]6-|[V:10][G,G]6-|[V:11]x6|[V:12]!trill)!A,,6-|[V:13]x6|[V:14](a'3 g'a'>=g')|[V:15]x6|[V:16](a3 ga>=g)|[V:17]x6|[V:18](A3 GA>=G)|[V:19]x6|[V:20](A,3 G,A,>=G,)|[V:21]x6|[V:22](A,3 G,A,>=G,)|[V:23]x6|[V:24](A,3 G,A,>=G,)|[V:25]x6|[V:26](A,3 G,A,>=G,)|[V:27]x6|[V:28](A,3 G,A,>=G,)|[V:29]x6|
[V:1]!>(! [e'g']6-|[V:2]x6|[V:3]!>(! [eg]6-|[V:4]x6|[V:5]!>(! [fa]6-|[V:6]x6|[V:7]!>(! [A,,,A,,]6-|[V:8]x6|[V:9]!>(! [fa]6-|[V:10]!>(! [G,G]6-|[V:11]x6|[V:12]!>(! !trill(!TA,,6-|[V:13]x6|[V:14]!>(! (f'3 ^e'f'>=g')|[V:15]x6|[V:16]!>(! (f3 ^ef>=g)|[V:17]x6|[V:18]!>(! (F3 ^EF>=G)|[V:19]x6|[V:20]!>(! (F,3 ^E,F,>=G,)|[V:21]x6|[V:22]!>(! (F,3 ^E,F,>=G,)|[V:23]x6|[V:24]!>(! (F,3 ^E,F,>=G,)|[V:25]x6|[V:26]!>(! (F,3 ^E,F,>=G,)|[V:27]x6|[V:28]!>(! (F,3 ^E,F,>=G,)|[V:29]x6|
[V:1][e'g']6-|[V:2]x6|[V:3][eg]6-|[V:4]x6|[V:5][fa]6-|[V:6]x6|[V:7][A,,,A,,]6-|[V:8]x6|[V:9][fa]6-|[V:10][G,G]6-|[V:11]x6|[V:12]!trill)!A,,6-|[V:13]x6|[V:14](a'3 g'a'>=g')|[V:15]x6|[V:16](a3 ga>=g)|[V:17]x6|[V:18](A3 GA>=G)|[V:19]x6|[V:20](A,3 G,A,>=G,)|[V:21]x6|[V:22](A,3 G,A,>=G,)|[V:23]x6|[V:24](A,3 G,A,>=G,)|[V:25]x6|[V:26](A,3 G,A,>=G,)|[V:27]x6|[V:28](A,3 G,A,>=G,)|[V:29]x6|
[V:1][e'g']6-|[V:2]x6|[V:3][eg]6-|[V:4]x6|[V:5][fa]6-|[V:6]x6|[V:7][A,,,A,,]6-|[V:8]x6|[V:9][fa]6-|[V:10][G,G]6-|[V:11]x6|[V:12]!trill(!TA,,6-|[V:13]x6|[V:14](f'3 ^e'f'>=g')|[V:15]x6|[V:16](f3 ^ef>=g)|[V:17]x6|[V:18](F3 ^EF>=G)|[V:19]x6|[V:20](F,3 ^E,F,>=G,)|[V:21]x6|[V:22](F,3 ^E,F,>=G,)|[V:23]x6|[V:24](F,3 ^E,F,>=G,)|[V:25]x6|[V:26](F,3 ^E,F,>=G,)|[V:27]x6|[V:28](F,3 ^E,F,>=G,)|[V:29]x6|
[V:1][e'g']6-!>)!|[V:2]x6|[V:3][eg]6-!>)!|[V:4]x6|[V:5][fa]6-!>)!|[V:6]x6|[V:7][A,,,A,,]6-!>)!|[V:8]x6|[V:9][fa]6-!>)!|[V:10][G,G]6-!>)!|[V:11]x6|[V:12]!trill)!A,,6-!>)!|[V:13]x6|[V:14](a'3 g'a'>=g')!>)!|[V:15]x6|[V:16](a3 ga>=g)!>)!|[V:17]x6|[V:18](A3 GA>=G)!>)!|[V:19]x6|[V:20](A,3 G,A,>=G,)!>)!|[V:21]x6|[V:22](A,3 G,A,>=G,)!>)!|[V:23]x6|[V:24](A,3 G,A,>=G,)!>)!|[V:25]x6|[V:26](A,3 G,A,>=G,)!>)!|[V:27]x6|[V:28](A,3 G,A,>=G,)!>)!|[V:29]x6|
[V:1]!p! [e'g'] z z2 z2|[V:2]x6|[V:3]!p! [eg] z z2 z2|[V:4]x6|[V:5]!p! [fa] z z2 z2|[V:6]x6|[V:7]!p! [A,,,A,,] z z2 z2|[V:8]x6|[V:9]!p! [fa] z z2 z2|[V:10]!p! [G,G] z z2 z2|[V:11]x6|[V:12]!p! A,, z z2 z2|[V:13]x6|[V:14]!p! (f'3 ^e'f'>=g')|[V:15]x6|[V:16]!p! (f3 ^ef>=g)|[V:17]x6|[V:18]!p! (F3 ^EF>=G)|[V:19]x6|[V:20]!p! (F,3 ^E,F,>=G,)|[V:21]x6|[V:22]!p! (F,3 ^E,F,>=G,)|[V:23]x6|[V:24]!p! (F,3 ^E,F,>=G,)|[V:25]x6|[V:26]!p! (F,3 ^E,F,>=G,)|[V:27]x6|[V:28]!p! (F,3 ^E,F,>=G,)|[V:29]x6|
[V:1]z6|[V:2]x6|[V:3]z6|[V:4]x6|[V:5]z6|[V:6]x6|[V:7]z6|[V:8]x6|[V:9]z6|[V:10]z6|[V:11]x6|[V:12]z6|[V:13]x6|[V:14](f'3 ^e'f'>=g')|[V:15]x6|[V:16](f3 ^ef>=g)|[V:17]x6|[V:18](F3 ^EF>=G)|[V:19]x6|[V:20](F,3 ^E,F,>=G,)|[V:21]x6|[V:22](F,3 ^E,F,>=G,)|[V:23]x6|[V:24](F,3 ^E,F,>=G,)|[V:25]x6|[V:26](F,3 ^E,F,>=G,)|[V:27]x6|[V:28](F,3 ^E,F,>=G,)|[V:29]x6|
[V:1]z6|[V:2]x6|[V:3]z6|[V:4]x6|[V:5]z6|[V:6]x6|[V:7]z6|[V:8]x6|[V:9]z6|[V:10]z6|[V:11]x6|[V:12]z6|[V:13]x6|[V:14](f'3 ^e'f'>=g')|[V:15]x6|[V:16](f3 ^ef>=g)|[V:17]x6|[V:18](F3 ^EF>=G)|[V:19]x6|[V:20](F,3 ^E,F,>=G,)|[V:21]x6|[V:22](F,3 ^E,F,>=G,)|[V:23]x6|[V:24](F,3 ^E,F,>=G,)|[V:25]x6|[V:26](F,3 ^E,F,>=G,)|[V:27]x6|[V:28](F,3 ^E,F,>=G,)|[V:29]x6|
[V:1]z6|[V:2]x6|[V:3]z6|[V:4]x6|[V:5]z6|[V:6]x6|[V:7]z6|[V:8]x6|[V:9]z6|[V:10]z6|[V:11]x6|[V:12]z6|[V:13]x6|[V:14]!pp! (f'3 ^e'f'>=g')|[V:15]x6|[V:16]!pp! (f3 ^ef>=g)|[V:17]x6|[V:18]!pp! (F3 ^EF>=G)|[V:19]x6|[V:20]!pp! (F,3 ^E,F,>=G,)|[V:21]x6|[V:22]!pp! (F,3 ^E,F,>=G,)|[V:23]x6|[V:24]!pp! (F,3 ^E,F,>=G,)|[V:25]x6|[V:26]!pp! (F,3 ^E,F,>=G,)|[V:27]x6|[V:28]!pp! (F,3 ^E,F,>=G,)|[V:29]x6|
[V:1]z6|[V:2]x6|[V:3]z6|[V:4]x6|[V:5]z6|[V:6]x6|[V:7]z6|[V:8]x6|[V:9]z6|[V:10]z6|[V:11]x6|[V:12]z6|[V:13]x6|[V:14]f'2 z2 z2|[V:15]x6|[V:16]f2 z2 z2|[V:17]x6|[V:18]F2 z2 z2|[V:19]x6|[V:20]F,2 z2 z2|[V:21]x6|[V:22]F,2 z2 z2|[V:23]x6|[V:24]F,2 z2 z2|[V:25]x6|[V:26]F,2 z2 z2|[V:27]x6|[V:28]F,2 z2 z2|[V:29]x6|
[V:1]z6|[V:2]x6|[V:3]z6|[V:4]x6|[V:5]z6|[V:6]x6|[V:7]z6|[V:8]x6|[V:9]z6|[V:10]z6|[V:11]x6|[V:12]z6|[V:13]x6|[V:14]^e'2 z2 z2|[V:15]x6|[V:16]^e2 z2 z2|[V:17]x6|[V:18]^E2 z2 z2|[V:19]x6|[V:20]^E,2 z2 z2|[V:21]x6|[V:22]^E,2 z2 z2|[V:23]x6|[V:24]^E,2 z2 z2|[V:25]x6|[V:26]^E,2 z2 z2|[V:27]x6|[V:28]^E,2 z2 z2|[V:29]x6|
[V:1]!fermata!z6||[V:2]x6||[V:3]!fermata!z6||[V:4]x6||[V:5]!fermata!z6||[V:6]x6||[V:7]!fermata!z6||[V:8]x6||[V:9]!fermata!z6||[V:10]!fermata!z6||[V:11]x6||[V:12]!fermata!z6||[V:13]x6||[V:14]!fermata!z6||[V:15]x6||[V:16]!fermata!z6||[V:17]x6||[V:18]!fermata!z6||[V:19]x6||[V:20]!fermata!z6||[V:21]x6||[V:22]!fermata!z6||[V:23]x6||[V:24]!fermata!z6||[V:25]x6||[V:26]!fermata!z6||[V:27]x6||[V:28]!fermata!z6||[V:29]x6||
[V:1][K:F#][Q:1/4=55]"^Andante cantabile" z6|[V:2][K:F#] x6|[V:3][K:F#] z6|[V:4][K:F#] x6|[V:5][K:Ab] z6|[V:6][K:Ab] x6|[V:7][K:F#] z6|[V:8][K:F#] x6|[V:9][K:Ab] z6|[V:10][K:Eb] z6|[V:11][K:Eb] x6|[V:12][K:F#] z6|[V:13][K:F#] x6|[V:14][K:F#]!pp! (f3 ef>g)|[V:15][K:F#] x6|[V:16][K:F#]!pp! (F3 EF>G)|[V:17][K:F#] x6|[V:18][K:F#]!pp! (F,6|[V:19][K:F#] x6|[V:20][K:F#]!pp! (D,6|[V:21][K:F#] x6|[V:22][K:F#]!pp! (D,6|[V:23][K:F#] x6|[V:24][K:F#]!pp! (D,6|[V:25][K:F#] x6|[V:26][K:F#]!pp! (D,6|[V:27][K:F#] x6|[V:28][K:F#]!pp! (D,6|[V:29][K:F#] x6|
[V:1]z6|[V:2]x6|[V:3]z6|[V:4]x6|[V:5]z6|[V:6]x6|[V:7]z6|[V:8]x6|[V:9]z6|[V:10]z6|[V:11]x6|[V:12]z6|[V:13]x6|[V:14](a3 ga>g)|[V:15]x6|[V:16](A3 GA>G)|[V:17]x6|[V:18]A,6|[V:19]x6|[V:20]^^C,6|[V:21]x6|[V:22]^^C,6|[V:23]x6|[V:24]^^C,6|[V:25]x6|[V:26]^^C,6|[V:27]x6|[V:28]^^C,6|[V:29]x6|
[V:1]z6|[V:2]x6|[V:3]z6|[V:4]x6|[V:5]z6|[V:6]x6|[V:7]z6|[V:8]x6|[V:9]z6|[V:10]z6|[V:11]x6|[V:12]z6|[V:13]x6|[V:14](f3 ef>g)|[V:15]x6|[V:16](F3 EF>G)|[V:17]x6|[V:18]B,6|[V:19]x6|[V:20]D,6|[V:21]x6|[V:22]D,6|[V:23]x6|[V:24]D,6|[V:25]x6|[V:26]D,6|[V:27]x6|[V:28]D,6|[V:29]x6|
[V:1]z6|[V:2]x6|[V:3]z6|[V:4]x6|[V:5]z6|[V:6]x6|[V:7]z6|[V:8]x6|[V:9]z6|[V:10]z6|[V:11]x6|[V:12]z6|[V:13]x6|[V:14](a3 ga>g)|[V:15]x6|[V:16](A3 GA>G)|[V:17]x6|[V:18]E,6|[V:19]x6|[V:20]C,6|[V:21]x6|[V:22]C,6|[V:23]x6|[V:24]C,6|[V:25]x6|[V:26]C,6|[V:27]x6|[V:28]C,6|[V:29]x6|
[V:1]z6|[V:2]x6|[V:3]z6|[V:4]x6|[V:5]z6|[V:6]x6|[V:7]z6|[V:8]x6|[V:9]z6|[V:10]z6|[V:11]x6|[V:12]z6|[V:13]x6|[V:14](f3 ef>g)|[V:15]x6|[V:16](F3 EF>G)|[V:17]x6|[V:18]F,6)|[V:19]x6|[V:20]D,6)|[V:21]x6|[V:22]D,6)|[V:23]x6|[V:24]D,6)|[V:25]x6|[V:26]D,6)|[V:27]x6|[V:28]D,6)|[V:29]x6|
[V:1]z6|[V:2]x6|[V:3]z6|[V:4]x6|[V:5]z6|[V:6]x6|[V:7]z6|[V:8]x6|[V:9]z6|[V:10]z6|[V:11]x6|[V:12]z6|[V:13]x6|[V:14](e3 de>d)|[V:15]x6|[V:16](E3 DE>D)|[V:17]x6|[V:18]B,6|[V:19]x6|[V:20](G,,6|[V:21]x6|[V:22](G,,6|[V:23]x6|[V:24](G,,6|[V:25]x6|[V:26](G,,6|[V:27]x6|[V:28](G,,6|[V:29]x6|
[V:1]z6|[V:2]x6|[V:3]z6|[V:4]x6|[V:5]z6|[V:6]x6|[V:7]z6|[V:8]x6|[V:9]z6|[V:10]z6|[V:11]x6|[V:12]z6|[V:13]x6|[V:14](^^c3 ^Bc>d)|[V:15]x6|[V:16](^^C3 ^B,C>D)|[V:17]x6|[V:18]E,6-|[V:19]x6|[V:20]A,,6|[V:21]x6|[V:22]A,,6|[V:23]x6|[V:24]A,,6|[V:25]x6|[V:26]A,,6|[V:27]x6|[V:28]A,,6|[V:29]x6|
[V:1]z6|[V:2]x6|[V:3]z6|[V:4]x6|[V:5]z6|[V:6]x6|[V:7]z6|[V:8]x6|[V:9]z6|[V:10]z6|[V:11]x6|[V:12]z6|[V:13]x6|[V:14](e3 ^^de>^d)|[V:15]x6|[V:16](E3 ^^DE>^D)|[V:17]x6|[V:18]E,6|[V:19]x6|[V:20]^^G,,6|[V:21]x6|[V:22]^^G,,6|[V:23]x6|[V:24]^^G,,6|[V:25]x6|[V:26]^^G,,6|[V:27]x6|[V:28]^^G,,6|[V:29]x6|
[V:1]z6|[V:2]x6|[V:3]z6|[V:4]x6|[V:5]z6|[V:6]x6|[V:7]z6|[V:8]x6|[V:9]z6|[V:10]z6|[V:11]x6|[V:12]z6|[V:13]x6|[V:14](^^c3 ^Bc>d)|[V:15]x6|[V:16](^^C3 ^B,C>D)|[V:17]x6|[V:18](E,6|[V:19]x6|[V:20]A,,6|[V:21]x6|[V:22]A,,6|[V:23]x6|[V:24]A,,6|[V:25]x6|[V:26]A,,6|[V:27]x6|[V:28]A,,6|[V:29]x6|
[V:1]z6|[V:2]x6|[V:3]z6|[V:4]x6|[V:5]z6|[V:6]x6|[V:7]z6|[V:8]x6|[V:9]z6|[V:10]z6|[V:11]x6|[V:12]z6|[V:13]x6|[V:14](e3 ^^de>^d)|[V:15]x6|[V:16](E3 ^^DE>^D)|[V:17]x6|[V:18]^^G,6|[V:19]x6|[V:20]^B,,6|[V:21]x6|[V:22]^B,,6|[V:23]x6|[V:24]^B,,6|[V:25]x6|[V:26]^B,,6|[V:27]x6|[V:28]^B,,6|[V:29]x6|
[V:1]z6|[V:2]x6|[V:3]z6|[V:4]x6|[V:5]z6|[V:6]x6|[V:7]z6|[V:8]x6|[V:9]z6|[V:10]z6|[V:11]x6|[V:12]z6|[V:13]x6|[V:14]!<(! (^^c3 ^^Bc>d)!<)!|[V:15]x6|[V:16]!<(! (^^C3 ^^B,C>D)!<)!|[V:17]x6|[V:18]!<(! G,6)!<)!|[V:19]x6|[V:20]!<(! A,,6)!<)!|[V:21]x6|[V:22]!<(! A,,6)!<)!|[V:23]x6|[V:24]!<(! A,,6)!<)!|[V:25]x6|[V:26]!<(! A,,6)!<)!|[V:27]x6|[V:28]!<(! A,,6)!<)!|[V:29]x6|
[V:1]z6|[V:2]x6|[V:3]z6|[V:4]x6|[V:5]z6|[V:6]x6|[V:7]z6|[V:8]x6|[V:9]z6|[V:10]z6|[V:11]x6|[V:12]z6|[V:13]x6|[V:14]!f!!>(! (e3 ^^de>d)!>)!|[V:15]x6|[V:16]!f!!>(! (E3 ^^DE>D)!>)!|[V:17]x6|[V:18]!f!!>(! (^^G,6!>)!|[V:19]x6|[V:20]!f!!>(! (^B,,6!>)!|[V:21]x6|[V:22]!f!!>(! (^B,,6!>)!|[V:23]x6|[V:24]!f!!>(! (^B,,6!>)!|[V:25]x6|[V:26]!f!!>(! (^B,,6!>)!|[V:27]x6|[V:28]!f!!>(! (^B,,6!>)!|[V:29]x6|
[V:1]z6|[V:2]x6|[V:3]z6|[V:4]x6|[V:5]z6|[V:6]x6|[V:7]z6|[V:8]x6|[V:9]z6|[V:10]z6|[V:11]x6|[V:12]z6|[V:13]x6|[V:14]!p! (^^c3 ^^Bc>d)|[V:15]x6|[V:16]!p! (^^C3 ^^B,C>D)|[V:17]x6|[V:18]!p! G,6)|[V:19]x6|[V:20]!p! A,,6)|[V:21]x6|[V:22]!p! A,,6)|[V:23]x6|[V:24]!p! A,,6)|[V:25]x6|[V:26]!p! A,,6)|[V:27]x6|[V:28]!p! A,,6)|[V:29]x6|
[V:1]z6|[V:2]x6|[V:3]z6|[V:4]x6|[V:5]z6|[V:6]x6|[V:7]z6|[V:8]x6|[V:9]z6|[V:10]z6|[V:11]x6|[V:12]z6|[V:13]x6|[V:14](e3 ^^de>^d)|[V:15]x6|[V:16](E3 ^^DE>^D)|[V:17]x6|[V:18](^^G,6|[V:19]x6|[V:20](^B,,6|[V:21]x6|[V:22](^B,,6|[V:23]x6|[V:24](^B,,6|[V:25]x6|[V:26](^B,,6|[V:27]x6|[V:28](^B,,6|[V:29]x6|
[V:1]z6|[V:2]x6|[V:3]z6|[V:4]x6|[V:5]z6|[V:6]x6|[V:7]z6|[V:8]x6|[V:9]z6|[V:10]z6|[V:11]x6|[V:12]z6|[V:13]x6|[V:14]!<(! (^^c3 ^^Bc>d)|[V:15]x6|[V:16]!<(! (^^C3 ^^B,C>D)|[V:17]x6|[V:18]!<(! G,6)|[V:19]x6|[V:20]!<(! A,,6)|[V:21]x6|[V:22]!<(! A,,6)|[V:23]x6|[V:24]!<(! A,,6)|[V:25]x6|[V:26]!<(! A,,6)|[V:27]x6|[V:28]!<(! A,,6)|[V:29]x6|
[V:1]z6|[V:2]x6|[V:3]z6|[V:4]x6|[V:5]z6|[V:6]x6|[V:7]z6|[V:8]x6|[V:9]z6|[V:10]z6|[V:11]x6|[V:12]z6|[V:13]x6|[V:14](e3 ^^de>f)!<)!|[V:15]x6|[V:16](E3 ^^DE>F)!<)!|[V:17]x6|[V:18](B,6!<)!|[V:19]x6|[V:20](C,6!<)!|[V:21]x6|[V:22](C,6!<)!|[V:23]x6|[V:24](C,6!<)!|[V:25]x6|[V:26](C,6!<)!|[V:27]x6|[V:28](C,6!<)!|[V:29]x6|
[V:1]z6|[V:2]x6|[V:3]z6|[V:4]x6|[V:5]z6|[V:6]x6|[V:7]z6|[V:8]x6|[V:9]z6|[V:10]z6|[V:11]x6|[V:12]z6|[V:13]x6|[V:14]!mf! (g3 ^^fg>a)|[V:15]x6|[V:16]!mf! (G3 ^^FG>A)|[V:17]x6|[V:18]!mf! A,6)|[V:19]x6|[V:20]!mf! ^^C,6)|[V:21]x6|[V:22]!mf! ^^C,6)|[V:23]x6|[V:24]!mf! ^^C,6)|[V:25]x6|[V:26]!mf! ^^C,6)|[V:27]x6|[V:28]!mf! ^^C,6)|[V:29]x6|
[V:1]z6|[V:2]x6|[V:3]z6|[V:4]x6|[V:5]z6|[V:6]x6|[V:7]z6|[V:8]x6|[V:9]z6|[V:10]z6|[V:11]x6|[V:12]z6|[V:13]x6|[V:14](c'3 ^bc'>=b)|[V:15]x6|[V:16](c3 ^Bc>=B)|[V:17]x6|[V:18](F6|[V:19]x6|[V:20](D,6|[V:21]x6|[V:22](D,6|[V:23]x6|[V:24](D,6|[V:25]x6|[V:26](D,6|[V:27]x6|[V:28](D,6|[V:29]x6|
[V:1]z6|[V:2]x6|[V:3]z6|[V:4]x6|[V:5]z6|[V:6]x6|[V:7]z6|[V:8]x6|[V:9]z6|[V:10]z6|[V:11]x6|[V:12]z6|[V:13]x6|[V:14](a3 ^^ga>b)|[V:15]x6|[V:16](A3 ^^GA>B)|[V:17]x6|[V:18]=E6|[V:19]x6|[V:20]C,6|[V:21]x6|[V:22]C,6|[V:23]x6|[V:24]C,6|[V:25]x6|[V:26]C,6|[V:27]x6|[V:28]C,6|[V:29]x6|
[V:1]z6|[V:2]x6|[V:3]z6|[V:4]x6|[V:5]z6|[V:6]x6|[V:7]z6|[V:8]x6|[V:9]z6|[V:10]z6|[V:11]x6|[V:12]z6|[V:13]x6|[V:14](d'3 ^^c'd'>^c')|[V:15]x6|[V:16](d3 ^^cd>^c)|[V:17]x6|[V:18]D6-)|[V:19]x6|[V:20]B,,6|[V:21]x6|[V:22]B,,6|[V:23]x6|[V:24]B,,6|[V:25]x6|[V:26]B,,6|[V:27]x6|[V:28]B,,6|[V:29]x6|
[V:1]z6|[V:2]x6|[V:3]z6|[V:4]x6|[V:5]z6|[V:6]x6|[V:7]z6|[V:8]x6|[V:9]z6|[V:10]z6|[V:11]x6|[V:12]z6|[V:13]x6|[V:14](^b3 ^^ab>c')|[V:15]x6|[V:16](^B3 ^^AB>c)|[V:17]x6|[V:18]D6-|[V:19]x6|[V:20]A,,6|[V:21]x6|[V:22]A,,6|[V:23]x6|[V:24]A,,6|[V:25]x6|[V:26]A,,6|[V:27]x6|[V:28]A,,6|[V:29]x6|
[V:1]z6|[V:2]x6|[V:3]z6|[V:4]x6|[V:5]z6|[V:6]x6|[V:7]z6|[V:8]x6|[V:9]z6|[V:10]z6|[V:11]x6|[V:12]z6|[V:13]x6|[V:14](e'3 ^^d'e'>^d')|[V:15]x6|[V:16](e3 ^^de>^d)|[V:17]x6|[V:18]D6|[V:19]x6|[V:20]^^G,,6)|[V:21]x6|[V:22]^^G,,6)|[V:23]x6|[V:24]^^G,,6)|[V:25]x6|[V:26]^^G,,6)|[V:27]x6|[V:28]^^G,,6)|[V:29]x6|
[V:1]z6|[V:2]x6|[V:3]z6|[V:4]x6|[V:5]z6|[V:6]x6|[V:7]z6|[V:8]x6|[V:9]z6|[V:10]z6|[V:11]x6|[V:12]z6|[V:13]x6|[V:14](^^c'3 ^^bc'>d')|[V:15]x6|[V:16](^^c3 ^^Bc>d)|[V:17]x6|[V:18](E6|[V:19]G,6-|[V:20]A,,6-|[V:21]x6|[V:22]A,,6-|[V:23]x6|[V:24]A,,6-|[V:25]x6|[V:26]A,,6-|[V:27]x6|[V:28]A,,6-|[V:29]x6|
[V:1]z6|[V:2]x6|[V:3]z6|[V:4]x6|[V:5]z6|[V:6]x6|[V:7]z6|[V:8]x6|[V:9]z6|[V:10]z6|[V:11]x6|[V:12]z6|[V:13]x6|[V:14]!<(! (e'3 ^^d'e'>f')!<)!|[V:15]x6|[V:16]!<(! (e3 ^^de>f)!<)!|[V:17]x6|[V:18]!<(! ^^C6)!<)!|[V:19]G,6|[V:20]!<(! A,,6!<)!|[V:21]x6|[V:22]!<(! A,,6!<)!|[V:23]x6|[V:24]!<(! A,,6!<)!|[V:25]x6|[V:26]!<(! A,,6!<)!|[V:27]x6|[V:28]!<(! A,,6!<)!|[V:29]x6|
[V:1]!f! ([aa']3 [^^g^^g'][aa']>[bb'])|[V:2]x6|[V:3]!f! ([Aa]3 [^^G^^g][Aa]>[Bb])|[V:4]x6|[V:5]!f! ([cc']3 [=B=b][cc']>[dd'])|[V:6]x6|[V:7]!f! ([A,A]3 [^^G,^^G][A,A]>[B,B])|[V:8]x6|[V:9]!f! [Cc]6-|[V:10]z6|[V:11]x6|[V:12]z6|[V:13]x6|[V:14]!f! (a'3 ^^g'a'>b')|[V:15]x6|[V:16]!f! (a3 ^^ga>b)|[V:17]x6|[V:18]!f! ([F,D]6|[V:19]x6|[V:20]!f! (D,,6|[V:21]x6|[V:22]!f! (D,,6|[V:23]x6|[V:24]!f! (D,,6|[V:25]x6|[V:26]!f! (D,,6|[V:27]x6|[V:28]!f! (D,,6|[V:29]x6|
[V:1]([aa']3 [^^g^^g'][aa']>[^g^g'])|[V:2]x6|[V:3]([Aa]3 [^^G^^g][Aa]>[^G^g])|[V:4]x6|[V:5]([cc']3 [=B=b][cc']>[_B_b])|[V:6]x6|[V:7]([A,A]3 [^^G,^^G][A,A]>[^G,^G])|[V:8]x6|[V:9][Cc]6|[V:10]z6|[V:11]x6|[V:12]z6|[V:13]x6|[V:14](a'3 ^^g'a'>^g')|[V:15]x6|[V:16](a3 ^^ga>^g)|[V:17]x6|[V:18][G,^^C]6)|[V:19]x6|[V:20]E,,6)|[V:21]x6|[V:22]E,,6)|[V:23]x6|[V:24]E,,6)|[V:25]x6|[V:26]E,,6)|[V:27]x6|[V:28]E,,6)|[V:29]x6|
[V:1]([ff']3 [ee'][ff']>[gg'])|[V:2]x6|[V:3]([Ff]3 [Ee][Ff]>[Gg])|[V:4]x6|[V:5]([Aa]3 [Gg][Aa]>[Bb])|[V:6]x6|[V:7]([F,F]3 [E,E][F,F]>[G,G])|[V:8]x6|[V:9][Cc]6-|[V:10]z6|[V:11]x6|[V:12]z6|[V:13]x6|[V:14](f'3 e'f'>g')|[V:15]x6|[V:16](f3 ef>g)|[V:17]x6|[V:18]([A,D]6|[V:19]x6|[V:20](F,,6|[V:21]x6|[V:22](F,,6|[V:23]x6|[V:24](F,,6|[V:25]x6|[V:26](F,,6|[V:27]x6|[V:28](F,,6|[V:29]x6|
[V:1]([aa']3 [^^g^^g'][aa']>[^g^g'])|[V:2]x6|[V:3]([Aa]3 [^^G^^g][Aa]>[^G^g])|[V:4]x6|[V:5]([cc']3 [=B=b][cc']>[_B_b])|[V:6]x6|[V:7]([A,A]3 [^^G,^^G][A,A]>[^G,^G])|[V:8]x6|[V:9][Cc]6|[V:10]z6|[V:11]x6|[V:12]z6|[V:13]x6|[V:14](a'3 ^^g'a'>^g')|[V:15]x6|[V:16](a3 ^^ga>^g)|[V:17]x6|[V:18][^^CE]6)|[V:19]x6|[V:20]G,,6)|[V:21]x6|[V:22]G,,6)|[V:23]x6|[V:24]G,,6)|[V:25]x6|[V:26]G,,6)|[V:27]x6|[V:28]G,,6)|[V:29]x6|
[V:1]!>(! ([ff']3 [ee'][ff']>[gg'])!>)!|[V:2]x6|[V:3]!>(! ([Ff]3 [Ee][Ff]>[Gg])!>)!|[V:4]x6|[V:5]!>(! ([Aa]3 [Gg][Aa]>[Bb])!>)!|[V:6]x6|[V:7]!>(! ([F,F]3 [E,E][F,F]>[G,G])!>)!|[V:8]x6|[V:9]!>(! [Cc]6-!>)!|[V:10]z6|[V:11]x6|[V:12]z6|[V:13]x6|[V:14]!>(! (f'3 e'f'>g')!>)!|[V:15]x6|[V:16]!>(! (f3 ef>g)!>)!|[V:17]x6|[V:18]!>(! ([DF]6!>)!|[V:19]x6|[V:20]!>(! (A,,6!>)!|[V:21]x6|[V:22]!>(! (A,,6!>)!|[V:23]x6|[V:24]!>(! (A,,6!>)!|[V:25]x6|[V:26]!>(! (A,,6!>)!|[V:27]x6|[V:28]!>(! (A,,6!>)!|[V:29]x6|
[V:1]!p! ([aa']3 [^^g^^g'][aa']>[^g^g'])|[V:2]x6|[V:3]!p! ([Aa]3 [^^G^^g][Aa]>[^G^g])|[V:4]x6|[V:5]!p! ([cc']3 [=B=b][cc']>[_B_b])|[V:6]x6|[V:7]!p! ([A,A]3 [^^G,^^G][A,A]>[^G,^G])|[V:8]x6|[V:9]!p! [Cc]6|[V:10]z6|[V:11]x6|[V:12]z6|[V:13]x6|[V:14]!p! (a'3 ^^g'a'>^g')|[V:15]x6|[V:16]!p! (a3 ^^ga>^g)|[V:17]x6|[V:18]!p! [^^CE]6)|[V:19]x6|[V:20]!p! G,,6)|[V:21]x6|[V:22]!p! G,,6)|[V:23]x6|[V:24]!p! G,,6)|[V:25]x6|[V:26]!p! G,,6)|[V:27]x6|[V:28]!p! G,,6)|[V:29]x6|
[V:1]([ff']3 [ee'][ff']>[gg'])|[V:2]x6|[V:3]([Ff]3 [Ee][Ff]>[Gg])|[V:4]x6|[V:5]([Aa]3 [Gg][Aa]>[Bb])|[V:6]x6|[V:7]([F,F]3 [E,E][F,F]>[G,G])|[V:8]x6|[V:9][Cc]6-|[V:10]z6|[V:11]x6|[V:12]z6|[V:13]x6|[V:14](f'3 e'f'>g')|[V:15]x6|[V:16](f3 ef>g)|[V:17]x6|[V:18]([DF]6|[V:19]x6|[V:20](A,,6|[V:21]x6|[V:22](A,,6|[V:23]x6|[V:24](A,,6|[V:25]x6|[V:26](A,,6|[V:27]x6|[V:28](A,,6|[V:29]x6|
[V:1]([aa']3 [^^g^^g'][aa']>[^g^g'])|[V:2]x6|[V:3]([Aa]3 [^^G^^g][Aa]>[^G^g])|[V:4]x6|[V:5]([cc']3 [=B=b][cc']>[_B_b])|[V:6]x6|[V:7]([A,A]3 [^^G,^^G][A,A]>[^G,^G])|[V:8]x6|[V:9][Cc]6|[V:10]z6|[V:11]x6|[V:12]z6|[V:13]x6|[V:14](a'3 ^^g'a'>^g')|[V:15]x6|[V:16](a3 ^^ga>^g)|[V:17]x6|[V:18][^^CE]6)|[V:19]x6|[V:20]G,,6)|[V:21]x6|[V:22]G,,6)|[V:23]x6|[V:24]G,,6)|[V:25]x6|[V:26]G,,6)|[V:27]x6|[V:28]G,,6)|[V:29]x6|
[V:1][ff']2 z2 z2|[V:2]x6|[V:3][Ff]2 z2 z2|[V:4]x6|[V:5][Aa]2 z2 z2|[V:6]x6|[V:7][F,F]2 z2 z2|[V:8]x6|[V:9][Cc]2 z2 z2|[V:10]z6|[V:11]x6|[V:12]z6|[V:13]x6|[V:14]f'2 z2 z2|[V:15]x6|[V:16]f2 z2 z2|[V:17]x6|[V:18][DF]2 z2 z2|[V:19]x6|[V:20]A,,2 z2 z2|[V:21]x6|[V:22]A,,2 z2 z2|[V:23]x6|[V:24]A,,2 z2 z2|[V:25]x6|[V:26]A,,2 z2 z2|[V:27]x6|[V:28]A,,2 z2 z2|[V:29]x6|
[V:1][Q:1/4=45]"^a tempo" z6|[V:2]x6|[V:3]z6|[V:4]x6|[V:5]z6|[V:6]x6|[V:7]z6|[V:8]x6|[V:9]z6|[V:10]z6|[V:11]x6|[V:12]z6|[V:13]x6|[V:14]"^pizz." d2 z2 z2|[V:15]x6|[V:16]"^pizz." D2 z2 z2|[V:17]x6|[V:18]"^pizz." D,2 z2 z2|[V:19]x6|[V:20]"^pizz." D,2 z2 z2|[V:21]x6|[V:22]"^pizz." D,2 z2 z2|[V:23]x6|[V:24]"^pizz." D,2 z2 z2|[V:25]x6|[V:26]"^pizz." D,2 z2 z2|[V:27]x6|[V:28]"^pizz." D,2 z2 z2|[V:29]x6|
[V:1]"^I."!ppp! [d'f']6-|[V:2]x6|[V:3]!ppp! [df]6-|[V:4]x6|[V:5]!ppp! [Ac]6-|[V:6]x6|[V:7]!ppp! [F,D]6-|[V:8]x6|[V:9]!ppp! [Cc]6-|[V:10]z6|[V:11]x6|[V:12]z6|[V:13]x6|[V:14]"^arco"!ppp! (F6|[V:15]x6|[V:16]"^arco"!ppp! (D6|[V:17]x6|[V:18]"^arco"!ppp! (A,6|[V:19]x6|[V:20]"^arco"!ppp! (D,6|[V:21]x6|[V:22]"^arco"!ppp! (D,6|[V:23]x6|[V:24]"^arco"!ppp! (D,6|[V:25]x6|[V:26]"^arco"!ppp! (D,6|[V:27]x6|[V:28]"^arco"!ppp! (D,6|[V:29]x6|
[V:1][d'f']6-|[V:2]x6|[V:3][df]6-|[V:4]x6|[V:5][Ac]6-|[V:6]x6|[V:7][F,D]6-|[V:8]x6|[V:9][Cc]6-|[V:10]z6|[V:11]x6|[V:12]z6|[V:13]x6|[V:14]A6|[V:15]x6|[V:16]F6|[V:17]x6|[V:18]D6|[V:19]x6|[V:20]A,,6|[V:21]x6|[V:22]A,,6|[V:23]x6|[V:24]A,,6|[V:25]x6|[V:26]A,,6|[V:27]x6|[V:28]A,,6|[V:29]x6|
[V:1][d'f']6-|[V:2]x6|[V:3][df]6-|[V:4]x6|[V:5][Ac]6-|[V:6]x6|[V:7][F,D]6-|[V:8]x6|[V:9][Cc]6-|[V:10]z6|[V:11]x6|[V:12]z6|[V:13]x6|[V:14]d6|[V:15]x6|[V:16]A6|[V:17]x6|[V:18]F6|[V:19]x6|[V:20]F,,6|[V:21]x6|[V:22]F,,6|[V:23]x6|[V:24]F,,6|[V:25]x6|[V:26]F,,6|[V:27]x6|[V:28]F,,6|[V:29]x6|
[V:1][d'f']6-|[V:2]x6|[V:3][df]6-|[V:4]x6|[V:5][Ac]6-|[V:6]x6|[V:7][F,D]6-|[V:8]x6|[V:9][Cc]6-|[V:10]z6|[V:11]x6|[V:12]z6|[V:13]x6|[V:14]f6|[V:15]x6|[V:16]d6|[V:17]x6|[V:18]A6|[V:19]x6|[V:20]D,,6|[V:21]x6|[V:22]D,,6|[V:23]x6|[V:24]D,,6|[V:25]x6|[V:26]D,,6|[V:27]x6|[V:28]D,,6|[V:29]x6|
[V:1][Q:1/4=30]"^ritard." [d'f']6-|[V:2]x6|[V:3][df]6-|[V:4]x6|[V:5][Ac]6-|[V:6]x6|[V:7][F,D]6-|[V:8]x6|[V:9][Cc]6-|[V:10]z6|[V:11]x6|[V:12]z6|[V:13]x6|[V:14]a6)|[V:15]x6|[V:16]f6)|[V:17]x6|[V:18]d6)|[V:19]x6|[V:20]A,,,6)|[V:21]x6|[V:22]A,,,6)|[V:23]x6|[V:24]A,,,6)|[V:25]x6|[V:26]A,,,6)|[V:27]x6|[V:28]A,,,6)|[V:29]x6|
[V:1][M:8/4] !fermata![d'f']16|][V:2][M:8/4] x16|][V:3][M:8/4] !fermata![df]16|][V:4][M:8/4] x16|][V:5][M:8/4] !fermata![Ac]16|][V:6][M:8/4] x16|][V:7][M:8/4] !fermata![F,D]16|][V:8][M:8/4] x16|][V:9][M:8/4] !fermata![Cc]16|][V:10][M:8/4] !fermata!z16|][V:11][M:8/4] x16|][V:12][M:8/4] !fermata!z16|][V:13][M:8/4] x16|][V:14][M:8/4] !fermata!d'16|][V:15][M:8/4] x16|][V:16][M:8/4] !fermata!a16|][V:17][M:8/4] x16|][V:18][M:8/4] !fermata!f16|][V:19][M:8/4] x16|][V:20][M:8/4] !fermata!D,,16|][V:21][M:8/4] x16|][V:22][M:8/4] !fermata!uD,,16|][V:23][M:8/4] x16|][V:24][M:8/4] !fermata!uD,,16|][V:25][M:8/4] x16|][V:26][M:8/4] !fermata!uD,,16|][V:27][M:8/4] x16|][V:28][M:8/4] !fermata!uD,,16|][V:29][M:8/4] x16|]
